X:2288
T:Polska
T:(FMK M 134 bild 143)
T:efter Ola Persson
S:efter Ola Persson
B:http://www.smus.se/earkiv/fmk/browselarge.php?lang=sw&katalogid=M+134&bildnr=00143
B:Svenska Låtar Skåne
R:Polska
O:Hörr, Tolånga, Skåne
M:3/4
L:1/8
K:F
|: f2 f>cf>a | a>g a/g/f/g/ a2 | f2 f>cf>a | g>e g2 f2 :|
|: a2 a>f d2 | g2 g>e c2 | d2 d>BA>B | c>dc>B A2 | F>A c>e f>a | g>e g2 f2 :|
(:musicend:)

(:music:)
